!!!OTL: Rizi yueguo yuexiangtian
!!!ARE: Asia, China,ÿLiaoning Changhai
!! III, 249
!!!SCT: C1749
!!!YEM: Copyright 1995, estate of Helmut Schaffrath.
**kern
*ICvox
*Ivox
*M2/4
*k[]
*C:
{4a
8a
8cc
=1
8e
8g
4a
=2
8cc
16dd
16b
16a
16cc
8a
=3
2a}
=4
{4dd
16a
16cc
8a
=5
8cc
8dd
16gg
16ee
16gg
16ee
=6
8ee
8cc
[4dd
=7
2dd]}
=8
{4ee
4dd
=9
2ee
=10
4a
8cc
8dd
=11
4ee
4gg}
=12
{8a
8cc
8dd
8ee
=13
4a
8ee
8dd
=14
8cc
8a
8g
16b
16a
=15
2a}
=16
{4a
8a
8cc
=17
2e
=18
4a
8a
8cc
=19
2dd}
=20
{4gg
8ee
8dd
=21
8cc
8a
4g
=22
8cc
8a
8g
16b
16a
=23
2a}
=24
{8a
8cc
8dd
16ee
16cc
=25
2a}
=26
{8cc
8cc
8e
8g
=27
2a}
=28
{8a
4a
8cc
=29
4dd
8ee
8gg
=30
8cc
8dd
8e
8g
=31
2a}
=32
{4a
8a
8cc
=33
2e}
=34
{8a
8a
8cc
8dd
=35
4ee
4ee}
=36
{8cc
8dd
8ee
8gg
=37
8ee
8dd
8cc
8a
=38
16dd
16ee
16dd
16cc
8cc
16g
16b
=39
2a}
=40
{4a
8a
8cc
=41
4e
8e
8g
=42
8dd
8dd
8ee
8cc
=43
4a
4a}
=44
{8cc
8dd
8ee
8gg
=45
8ee
8dd
8cc
8a
=46
8cc
8a
8g
16b
16a
=47
2a}
==
!!!AGN: Xiaodiao, Youya diao
!!!AMT: simple duple
!!!AIN: vox
!!!EED: Helmut Schaffrath
!!!EEV: 1.0
*-
!!!ONB: Tied note syntax fixed by Craig Sapp, 2004/05/03/
